assets/images/menuBack.svg

<svg width="719" height="391" viewBox="0 0 719 391" fill="none" xmlns="http://www.w3.org/2000/svg">
<path fill-rule="evenodd" clip-rule="evenodd" d="M470.201 496.99C414.854 497.076 361.077 478.613 317.467 444.552C280.738 473.159 236.709 490.882 190.395 495.703C144.08 500.525 97.3418 492.251 55.5021 471.823C13.6624 451.396 -21.5967 419.637 -46.2602 380.162C-70.9236 340.688 -84 295.084 -84 248.546C-84 202.007 -70.9236 156.404 -46.2602 116.929C-21.5967 77.4541 13.6624 45.6948 55.5021 25.2676C97.3418 4.84039 144.08 -3.43361 190.395 1.38784C236.709 6.2093 280.738 23.9324 317.467 52.5389C348.696 28.2001 385.29 11.6685 424.203 4.32032C463.115 -3.02789 503.222 -0.980169 541.183 10.293C579.144 21.5662 613.861 41.7388 642.446 69.1314C671.03 96.5241 692.654 130.344 705.518 167.777C718.381 205.21 722.112 245.172 716.4 284.337C710.688 323.502 695.698 360.737 672.679 392.942C649.659 425.148 619.275 451.392 584.056 469.489C548.837 487.587 509.802 497.016 470.201 496.99ZM351.16 84.5896C389.521 128.507 412.964 207.823 412.964 248.495C412.964 289.167 410.934 285.11 407.078 302.454C431.058 291.978 450.7 273.573 462.704 250.331C474.709 227.089 478.343 200.426 472.998 174.822C467.653 149.217 453.653 126.232 433.351 109.726C413.049 93.2209 387.682 84.2017 361.512 84.1839C358.061 84.1839 351.363 84.1839 351.363 84.1839L351.16 84.5896ZM272.815 184.9C301.042 184.876 328.275 195.312 349.25 214.192C370.224 233.071 383.45 259.052 386.37 287.112C389.289 315.172 381.696 343.317 365.057 366.105C348.418 388.894 323.915 404.707 296.287 410.488C268.659 416.269 239.868 411.606 215.48 397.402C191.092 383.198 172.84 360.46 164.252 333.587C155.665 306.713 157.352 277.611 168.988 251.909C180.624 226.206 201.382 205.728 227.248 194.435C218.81 232.556 219.456 272.127 229.134 309.953C238.812 347.78 257.251 382.803 282.963 412.197C309.518 409.839 334.403 398.243 353.282 379.431C372.16 360.618 383.836 335.782 386.274 309.249C378.149 311.089 369.842 312.007 361.512 311.988C331.286 311.988 302.298 299.987 280.925 278.627C259.552 257.266 247.545 228.295 247.545 198.086C247.545 194.536 247.545 191.087 248.053 187.943C256.185 186.148 264.486 185.23 272.815 185.205V184.9Z" fill="#001240"/>
</svg>

<svg width="719" height="391" fill="none" xmlns="http://www.w3.org/2000/svg"><path fill-rule="evenodd" clip-rule="evenodd" d="M470.201 496.99a247.507 247.507 0 01-152.734-52.438 248.747 248.747 0 01-261.965 27.271A248.583 248.583 0 01-46.26 380.162 248.389 248.389 0 01-84 248.546a248.392 248.392 0 0137.74-131.617A248.586 248.586 0 0155.502 25.268a248.759 248.759 0 01134.893-23.88 248.711 248.711 0 01127.072 51.15A248.707 248.707 0 01424.203 4.32a248.772 248.772 0 01116.98 5.973 248.674 248.674 0 01101.263 58.838 248.484 248.484 0 0163.072 98.646 248.37 248.37 0 0110.882 116.56 248.423 248.423 0 01-43.721 108.605 248.58 248.58 0 01-88.623 76.547 248.752 248.752 0 01-113.855 27.501zM351.16 84.59c38.361 43.917 61.804 123.233 61.804 163.905s-2.03 36.615-5.886 53.959a113.943 113.943 0 0055.626-52.123 113.84 113.84 0 0010.294-75.509 113.892 113.892 0 00-39.647-65.096 114.007 114.007 0 00-71.839-25.542h-10.149l-.203.406zM272.815 184.9a114.105 114.105 0 0176.435 29.292 113.956 113.956 0 0115.807 151.913 114.075 114.075 0 01-68.77 44.383 114.123 114.123 0 01-80.807-13.086 114.02 114.02 0 01-51.228-63.815 113.945 113.945 0 014.736-81.678 114.033 114.033 0 0158.26-57.474 248.966 248.966 0 001.886 115.518 249.056 249.056 0 0053.829 102.244 113.896 113.896 0 0070.319-32.766 113.78 113.78 0 0032.992-70.182 110.97 110.97 0 01-24.762 2.739 114.003 114.003 0 01-80.587-33.361 113.869 113.869 0 01-33.38-80.541c0-3.55 0-6.999.508-10.143a116.5 116.5 0 0124.762-2.738v-.305z" fill="#001240"/></svg>
